build/img/icons/like.svg

<svg width="22" height="20" viewBox="0 0 22 20" fill="none" xmlns="http://www.w3.org/2000/svg">
<path d="M1 7.99999H4V20H1C0.734784 20 0.48043 19.8946 0.292893 19.7071C0.105357 19.5196 0 19.2652 0 19V8.99999C0 8.73477 0.105357 8.48042 0.292893 8.29288C0.48043 8.10535 0.734784 7.99999 1 7.99999ZM6.293 6.70699L12.693 0.306989C12.7781 0.221683 12.8911 0.169956 13.0112 0.161321C13.1314 0.152686 13.2506 0.187723 13.347 0.259989L14.2 0.899989C14.4369 1.07783 14.6158 1.32184 14.7143 1.60125C14.8127 1.88065 14.8262 2.18293 14.753 2.46999L13.6 6.99999H20C20.5304 6.99999 21.0391 7.2107 21.4142 7.58578C21.7893 7.96085 22 8.46956 22 8.99999V11.104C22.0003 11.3654 21.9493 11.6242 21.85 11.866L18.755 19.381C18.6795 19.5642 18.5513 19.7209 18.3866 19.8311C18.2219 19.9413 18.0282 20.0001 17.83 20H7C6.73478 20 6.48043 19.8946 6.29289 19.7071C6.10536 19.5196 6 19.2652 6 19V7.41399C6.00006 7.14879 6.10545 6.89448 6.293 6.70699Z" fill="#5CC773"/>
</svg>

<svg width="22" height="20" fill="none" xmlns="http://www.w3.org/2000/svg">
    <path d="M1 8h3v12H1a1 1 0 0 1-1-1V9a1 1 0 0 1 1-1zm5.293-1.293 6.4-6.4a.5.5 0 0 1 .654-.047L14.2.9a1.5 1.5 0 0 1 .553 1.57L13.6 7H20a2 2 0 0 1 2 2v2.104a2 2 0 0 1-.15.762l-3.095 7.515a1 1 0 0 1-.925.619H7a1 1 0 0 1-1-1V7.414a1 1 0 0 1 .293-.707z" fill="#5CC773"/>
</svg>
